src/assets/icons/twitch.svg

<svg width="14" height="14" viewBox="0 0 14 14" fill="none" xmlns="http://www.w3.org/2000/svg">
<g id="twitch">
<g clip-path="url(#clip0_295_4737)">
<path id="Vector" d="M6.74271 2.751H7.76473V5.747H6.74271M9.55149 2.751H10.5735V5.747H9.55149M3.42649 0L0.875 2.499V11.501H3.93393V14L6.49256 11.501H8.52946L13.125 7V0M12.103 6.503L10.0661 8.498H8.02202L6.23527 10.248V8.498H3.93393V1.001H12.103V6.503Z" fill="black"/>
</g>
</g>
<defs>
<clipPath id="clip0_295_4737">
<rect width="14" height="14" fill="white"/>
</clipPath>
</defs>
</svg>

<svg xmlns="http://www.w3.org/2000/svg" fill="none" viewBox="0 0 14 14"><g clip-path="url(#a)"><path fill="#000" d="M6.743 2.751h1.022v2.996H6.743M9.55 2.751h1.022v2.996H9.551M3.426 0 .875 2.499v9.002h3.059V14l2.559-2.499h2.036L13.125 7V0m-1.022 6.503-2.037 1.995H8.022l-1.787 1.75v-1.75H3.934V1.001h8.169z"/></g><defs><clipPath id="a"><path fill="#fff" d="M0 0h14v14H0z"/></clipPath></defs></svg>
